X:40
T:Humours of Ballyconnell, The
R:hornpipe
D:Mary Bergin: Feadoga Stain 2
Z:id:hn-hornpipe-40
M:C|
K:Amix
ed|(3Bcd ef ecAB|AGEF GABd|cdcB AGEG|ABcd e2dB|
cdcB cBAB|AEAB cdcB|ABAG ED (3EFG|A2BG A2:|
|:zE|ABcd e2dc|dcdf g2ed|efga ba (3gab|a2ag a2af|
gedB =c2AE|AGAB cdcB|ABAG ED (3EFG|A2BG A2:|

